img/svg/software-licenses/chat-dots.svg

<svg width="24" height="24" viewBox="0 0 24 24" fill="none" xmlns="http://www.w3.org/2000/svg">
<path d="M8.7392 21.0751L8.73859 21.075C8.50057 21.0112 8.24738 21.0375 8.02759 21.149L8.02741 21.1491C7.41118 21.4612 6.09374 22.036 3.96336 22.5296L3.12589 22.7236L3.37131 21.8998C3.65396 20.9509 3.84767 19.9778 3.94995 18.9931C3.96363 18.8472 3.94512 18.7002 3.89571 18.5623C3.84611 18.4239 3.76657 18.2981 3.66277 18.1939C1.9899 16.5147 1 14.3484 1 12C1 6.87794 5.79158 2.5 12 2.5C18.2084 2.5 23 6.87794 23 12C23 17.1234 18.2087 21.4997 12.0007 21.5L8.7392 21.0751ZM8.7392 21.0751C9.80289 21.3587 10.8992 21.5015 12 21.5L8.7392 21.0751ZM3.18021 23.2081L3.17943 23.2082L3.15076 23.2139C3.15066 23.214 3.15057 23.214 3.15047 23.214C2.87871 23.2676 2.60627 23.3177 2.33322 23.3642C2.44141 23.0979 2.54266 22.8289 2.63687 22.5574L2.64242 22.5414L2.6468 22.5254C3.04967 21.3693 3.31984 20.1711 3.45207 18.954L3.47791 18.7162L3.30898 18.5469C1.55166 16.7853 0.5 14.4937 0.5 12C0.5 6.53778 5.58433 2 12 2C18.4157 2 23.5 6.53778 23.5 12C23.5 17.4622 18.4157 22 12 22H11.9993C10.8545 22.0015 9.71448 21.8529 8.60835 21.5579L8.42405 21.5087L8.25384 21.5948C7.5141 21.969 5.88026 22.6725 3.18021 23.2081ZM11.2929 12.7071L10.9393 13.0607L11.2929 12.7071C11.1054 12.5196 11 12.2652 11 12C11 11.7348 11.1054 11.4804 11.2929 11.2929L10.9393 10.9393L11.2929 11.2929C11.4804 11.1054 11.7348 11 12 11C12.2652 11 12.5196 11.1054 12.7071 11.2929L13.0607 10.9393L12.7071 11.2929C12.8946 11.4804 13 11.7348 13 12C13 12.2652 12.8946 12.5196 12.7071 12.7071L13.0607 13.0607L12.7071 12.7071C12.5196 12.8946 12.2652 13 12 13C11.7348 13 11.4804 12.8946 11.2929 12.7071ZM7 12C7 12.2652 6.89464 12.5196 6.70711 12.7071C6.51957 12.8946 6.26522 13 6 13C5.73478 13 5.48043 12.8946 5.29289 12.7071C5.10536 12.5196 5 12.2652 5 12C5 11.7348 5.10536 11.4804 5.29289 11.2929C5.48043 11.1054 5.73478 11 6 11C6.26522 11 6.51957 11.1054 6.70711 11.2929C6.89464 11.4804 7 11.7348 7 12ZM18.7071 12.7071C18.5196 12.8946 18.2652 13 18 13C17.7348 13 17.4804 12.8946 17.2929 12.7071C17.1054 12.5196 17 12.2652 17 12C17 11.7348 17.1054 11.4804 17.2929 11.2929C17.4804 11.1054 17.7348 11 18 11C18.2652 11 18.5196 11.1054 18.7071 11.2929C18.8946 11.4804 19 11.7348 19 12C19 12.2652 18.8946 12.5196 18.7071 12.7071Z" fill="#030303" stroke="#030303"/>
</svg>

<svg width="24" height="24" fill="none" xmlns="http://www.w3.org/2000/svg"><path d="M8.74 21.075h-.001a1 1 0 00-.711.074h0c-.617.312-1.934.887-4.065 1.38l-.837.195.245-.824c.283-.95.477-1.922.579-2.907a1 1 0 00-.287-.8C1.99 16.516 1 14.349 1 12c0-5.122 4.792-9.5 11-9.5S23 6.878 23 12c0 5.123-4.791 9.5-11 9.5l-3.26-.425zm0 0A12.59 12.59 0 0012 21.5l-3.26-.425zm-5.56 2.133h0l-.03.006s0 0 0 0c-.271.054-.544.104-.817.15.108-.266.21-.535.304-.807l.005-.016.005-.016c.403-1.156.673-2.354.805-3.571l.026-.238-.169-.17C1.552 16.787.5 14.495.5 12 .5 6.538 5.584 2 12 2s11.5 4.538 11.5 10S18.416 22 12 22h0a13.092 13.092 0 01-3.392-.442l-.184-.05-.17.087c-.74.374-2.374 1.078-5.074 1.613zm8.113-10.5l-.354.353.354-.354a1 1 0 010-1.414l-.354-.354.354.354a1 1 0 011.414 0l.354-.354-.354.354a1 1 0 010 1.414l.354.354-.354-.354a1 1 0 01-1.414 0zM7 12a1 1 0 11-2 0 1 1 0 012 0zm11.707.707a1 1 0 11-1.414-1.414 1 1 0 011.414 1.414z" fill="#030303" stroke="#030303"/></svg>
